X:513
T: Maoweiyuan pailai xueshengjun
N: C1932
O: China,Hubei Macheng
S: I, 403]
R: Xiaodiao, Qong rendiao]
M: 2/4
L: 1/16
K: A
A3BA2B2 | AcB4cB | A4z4 |
A3BA2B2 | ecB4cB | A4z4 |
A2A2c2BA | FAE2-EAFE | C8 |
F2F4B2 | F4z4 | A2A2c2BA | FAE2-EAFE | C8

@@@ Tune index: 7068
